X:1
T:Lord, we adore thy vast designs
T:Thomas Clark
T:Tune 594 from p448 of The Congregational Harmonist, Book 4, No. 25 London: [c1836]
T:This edition by Edmund Gooch released into the public domain, July 2015.
T:Lord, we adore thy vast designs
T:OBSCURITY. L.M. Hymn 109. B: 2. Dr. Watts
C:Thomas Clark
Z:Tune 594 from p448 of
Z:The Congregational
Z:Harmonist, Book 4, No. 25
Z:London: [c1836]
%%score [ 1 ( 2 3 ) 4 5 ]
L:1/8
M:3/4
K:C
V:1 treble nm="Soprano" snm="S."
V:2 treble nm="Alto" snm="A."
V:3 treble 
V:4 treble-8 transpose=-12 nm="Tenor" snm="T."
V:5 bass nm="Bass" snm="B."
V:1
"^Andante" c2 c2 B2 | c4 ^c2 | (d2 e2) f2 | (f2 e2) e2 | d4 e2 | c4 d2 | c4 B2 | A4 A2 | G4 F2 | %9
w: Through seas and|storms of|deep _ dis-|tress, _ We|sail by|faith, and|not by|sight; Faith|guides us|
w: Lord, we a-|dore thy|vast _ de-|signs, _ Th’ob-|scure a-|byss of|pro- vi-|dence; Too|deep to|
w: Now thou ar-|ray’st thine|aw- * ful|face, _ In|ang- ry|frowns, with-|out a|smile: We,|through the|
 (F2 E2) e2 | d4 c2 | (c2 B2) c2 | c4 _B2 | (_B2 A=B) c2 | c4 B2 | c4 |] %16
w: in _ the|wil- der-|ness, _ Through|all the|bri- * * ars,|and the|night.|
w: sound _ with|mor- tal|lines, _ Too|dark to|view _ _ with|fee- ble|sense.|
w: cloud, _ be-|lieve thy|grace, _ Se-|cure of|thy _ _ com-|pas- sion|still.|
V:2
 E2 G2 F2 | E4 E2 | (D2 C2) B,2 | C4 G2 | G4 ^G2 | A4 F2 | E4 E2 | E4 C2 | C4 B,2 | C4 C2 | F4 E2 | %11
w: Through seas and|storms of|deep _ dis-|tress, We|sail by|faith, and|not by|sight; Faith|guides us|in the|wil- der-|
w: Lord, we a-|dore thy|vast _ de-|signs, Th’ob-|scure a-|byss of|pro- vi-|dence; Too|deep to|sound with|mor- tal|
w: Now thou ar-|ray’st thine|aw- * ful|face, In|ang- ry|frowns, with-|out a|smile: We,|through the|cloud, be-|lieve thy|
 D4 E2 | F4 G2 | (G2 F2) G2 | (A2 G2) F2 | E4 |] %16
w: ness, Through|all the|bri- * ars,|and _ the|night.|
w: lines, Too|dark to|view _ with|fee- * ble|sense.|
w: grace, Se-|cure of|thy _ com-|pas- * sion|still.|
V:3
 x6 | x6 | x6 | x6 | x6 | x6 | x4 (ED) | C4 x2 | x6 | x6 | x6 | x6 | x6 | x6 | x6 | x4 |] %16
V:4
 G2 c2 d2 | c4 _B2 | (A2 G2) G2 | G4 c2 | B4 B2 | A4 B2 | A4 ^G2 | A4 F2 | G4 G2 | G4 G2 | G4 G2 | %11
w: Through seas and|storms of|deep _ dis-|tress, We|sail by|faith, and|not by|sight; Faith|guides us|in the|wil- der-|
w: Lord, we a-|dore thy|vast _ de-|signs, Th’ob-|scure a-|byss of|pro- vi-|dence; Too|deep to|sound with|mor- tal|
w: Now thou ar-|ray’st thine|aw- * ful|face, In|ang- ry|frowns, with-|out a|smile: We,|through the|cloud, be-|lieve thy|
 G4 G2 | F4 c2 | (c3 d) e2 | (f2 e2) d2 | c4 |] %16
w: ness, Through|all the|bri- * ars,|and _ the|night.|
w: lines, Too|dark to|view _ with|fee- * ble|sense.|
w: grace, Se-|cure of|thy _ com-|pas- * sion|still.|
V:5
 C,2"^6" E,2"^7" G,2 | A,4"^FC" G,2 |"^6" (F,2"^6" E,2)"^43" D,2 |"^4""^3" C,4 C,2 | G,4"^#" E,2 | %5
w: Through seas and|storms of|deep _ dis-|tress, We|sail by|
w: Lord, we a-|dore thy|vast _ de-|signs, Th’ob-|scure a-|
w: Now thou ar-|ray’st thine|aw- * ful|face, In|ang- ry|
 F,4"^6" D,2 |"^64" E,4"^5#" E,2 | A,,4 F,2 | %8
w: faith, and|not by|sight; Faith|
w: byss of|pro- vi-|dence; Too|
w: frowns, with-|out a|smile: We,|
"^Notes: This setting is attributed ‘T. Clark’ in The Congregational Harmonist, where it is marked with a crossed circle, used inthat book to indicate ‘originals’ (i.e. tunes not previously published). The order of parts in the source is Alto - Tenor - Air - Bass,with the Alto and Tenor parts given in the treble clef an octave above sounding pitch. Only the first verse of the text is given inthe source: subsequent verses have here been added editorially.""^52" (F,2"^6" E,2)"^43" D,2 | %9
w: guides _ us|
w: deep _ to|
w: through _ the|
"^4""^3" C,4 C,2 |"^542" (C,2"^65" B,,2) C,2 |"^4""^3" G,4 C,2 |"^7" D,4"^6B" E,2 | %13
w: in the|wil- * der-|ness, Through|all the|
w: sound with|mor- * tal|lines, Too|dark to|
w: cloud, be-|lieve _ thy|grace, Se-|cure of|
"^9V""^83" F,4"^6R""^6" E,2 |"^7" (D,2"^64" G,2)"^73" G,,2 | C,4 |] %16
w: bri- ars,|and _ the|night.|
w: view with|fee- * ble|sense.|
w: thy com-|pas- * sion|still.|

